build/img/0-common/search.svg

<svg width="16" height="15" viewBox="0 0 16 15" fill="none" xmlns="http://www.w3.org/2000/svg">
<g clip-path="url(#clip0)">
<path d="M15.1186 13.6626L11.5486 9.94962C12.4665 8.85844 12.9694 7.48552 12.9694 6.05624C12.9694 2.71688 10.2525 0 6.91318 0C3.57382 0 0.856934 2.71688 0.856934 6.05624C0.856934 9.3956 3.57382 12.1125 6.91318 12.1125C8.16682 12.1125 9.36148 11.7344 10.3829 11.0166L13.98 14.7578C14.1304 14.9139 14.3326 15 14.5493 15C14.7544 15 14.949 14.9218 15.0967 14.7796C15.4106 14.4776 15.4206 13.9768 15.1186 13.6626ZM6.91318 1.57989C9.38149 1.57989 11.3895 3.58793 11.3895 6.05624C11.3895 8.52456 9.38149 10.5326 6.91318 10.5326C4.44486 10.5326 2.43682 8.52456 2.43682 6.05624C2.43682 3.58793 4.44486 1.57989 6.91318 1.57989Z" fill="#ADADAD"/>
</g>
<defs>
<clipPath id="clip0">
<rect width="15" height="15" fill="white" transform="translate(0.597656)"/>
</clipPath>
</defs>
</svg>

<svg width="16" height="15" fill="none" xmlns="http://www.w3.org/2000/svg"><g clip-path="url(#clip0)"><path d="M15.119 13.663l-3.57-3.713a6.037 6.037 0 001.42-3.894A6.063 6.063 0 006.913 0 6.063 6.063 0 00.857 6.056a6.063 6.063 0 006.056 6.057 5.991 5.991 0 003.47-1.096l3.597 3.74c.15.157.353.243.57.243a.79.79 0 00.57-1.337zM6.913 1.58a4.481 4.481 0 014.476 4.476 4.481 4.481 0 01-4.476 4.477 4.481 4.481 0 01-4.476-4.477A4.481 4.481 0 016.913 1.58z" fill="#ADADAD"/></g><defs><clipPath id="clip0"><path fill="#fff" transform="translate(.598)" d="M0 0h15v15H0z"/></clipPath></defs></svg>
